static/assets/imgs/slider/swiper/prev-active.svg

<svg width="32" height="32" viewBox="0 0 32 32" fill="none" xmlns="http://www.w3.org/2000/svg">
<circle cx="15.9998" cy="16" r="15.9998" fill="url(#paint0_linear_42_1808)"/>
<path d="M21.9196 14.9536H13.5196L16.2858 12.1875L15.098 10.9998L11.4919 14.6059C11.1769 14.9209 11 15.3482 11 15.7936C11 16.2391 11.1769 16.6663 11.4919 16.9814L15.098 20.5875L16.2858 19.3998L13.5196 16.6336H21.9196V14.9536Z" fill="#D8E6FB"/>
<defs>
<linearGradient id="paint0_linear_42_1808" x1="1.89174" y1="31.9998" x2="35.8805" y2="27.3384" gradientUnits="userSpaceOnUse">
<stop stop-color="#0EA5EA"/>
<stop offset="1" stop-color="#0BD1D1"/>
</linearGradient>
</defs>
</svg>

<svg version="1.2" xmlns="http://www.w3.org/2000/svg" viewBox="0 0 32 32" width="32" height="32">
	<title>prev-active-svg</title>
	<style>
		.s0 { fill: #de210e } 
		.s1 { fill: #d8e6fb } 
	</style>
	<path id="Layer" class="s0" d="m16 32c-8.8 0-16-7.2-16-16 0-8.8 7.2-16 16-16 8.8 0 16 7.2 16 16 0 8.8-7.2 16-16 16z"/>
	<path id="Layer" class="s1" d="m21.9 15h-8.4l2.8-2.8-1.2-1.2-3.6 3.6c-0.3 0.3-0.5 0.7-0.5 1.2 0 0.4 0.2 0.9 0.5 1.2l3.6 3.6 1.2-1.2-2.8-2.8h8.4z"/>
</svg>
